X:1
T:Veni sponsa Christi - Gabrieli
T:#
%%score [ 1 2 3 4 ]
L:1/8
Q:1/4=200
M:none
K:C
V:1 treble nm="Soprano" snm="S"
V:2 treble nm="Alto" snm="A"
V:3 treble-8 nm="Tenor" snm="T"
V:4 bass nm="Bass" snm="B"
V:1
"^Veni sponsa Christi""^Andrea Gabrieli\n(c. 1510-1586)" z16 | z8 d8- | d4 B4 d4 e4 | d8 d4 d4- | %4
w: |Ve\-|* ni spon- sa|Chri- sti, ve\-|
 d4 c4 B4 A4 | (B6 c2 d2 G2 g4-) |[M:4/2] (g2 f2 e8 d2 c2 | B2 A2 G8 ^F4) | G4 d8 B4 | d16 | %10
w: * ni spon- sa|Chri\- * * * *|||sti, ve- ni|spon-|
 e8 d8- | d16 | d8 z8 | z4 c8 B4 | c4 A4 (B6 c2 | d8) G4 g4- | g4 f4 e8 | d4 (c8 B4) | c8 z4 c4- | %19
w: sa Chri\-||sti,|ac- ci-|pe co- ro\- *|* nam, ac\-|* ci- pe|co- ro\- *|nam, ac\-|
 c4 A4 B4 c4 | (A6 B2 c2 d2 e4- | e4 d2 c2 B2 A2 G4- | G4 ^F4) (G2 A2 B2 c2 | d8) z4 d4- | %24
w: * ci- pe co-|ro\- * * * *||* * nam, * * *|* ac\-|
 d4 B4 c8 | d8 c8 | G8 G4 g4 | g4 g4 e4 g4 | c8 z4 c4 | c4 c4 B4 d4 | c4 (c2 d2 e2 f2 g4) | %31
w: * ci- pe|* co-|ro- nam, quam|ti- bi Do- mi-|nus, quam|ti- bi Do- mi-|nus, quam * * * *|
 c4 e4 (d2 c2 B2 A2 | G4) G4 G8 | z16 | z16 | z8 d8- | d4 c4 d4 d4 | f4 e4 (d6 cB | A2 B2 c8 B4) | %39
w: ti- bi Do\- * * *|* mi- nus|||prae\-|* pa- ra- vit|in ae- ter\- * *||
 c8 z8 | z4 A8 G4 | A8 A4 c4- | c4 B4 A8 | G4 B4 B4 B4 | c4 e4 c8 | z4 e8 d4 | e4 e4 f8 | %47
w: num,|prae- pa-|ra- vit in|* ae- ter-|num, quam ti- bi|Do- mi- nus|prae- pa-|ra- vit in|
 e4 (d8 c4) | d4 f8 e4 | d4 f4 d4 e4 | f8 e4 e4- | %51
w: ae- ter\- *|num, prae- pa-|ra- vit in ae-|ter- num, in|
 e4 d4[Q:1/4=199] (d2[Q:1/4=197] c[Q:1/4=197]B[Q:1/4=195] A4) | %52
w: * ae- ter\- * * *|
[Q:1/4=192] B4[Q:1/4=187] c8[Q:1/4=182] d4 |[Q:1/4=179] (e6[Q:1/4=176] d2[Q:1/4=172] c8) | %54
w: num, in ae-|ter\- * *|
[Q:1/4=170] B16 |] %55
w: num.|
V:2
 z16 | z16 | G12 E4 | G4 ^F4 (G6 =FE | F2 D2 G8 ^F4) | G8 G8 |[M:4/2] E8 G8- | G8 A8 | G8 G8 | %9
w: ||Ve- ni|spon- sa Chri\- * *||sti, ve-|ni spon\-|* sa|Chri- sti,|
 A8 A4 (A4- | A2 B2 c8) B4 | (A4 G4 A8) | B8 z4 G4- | G4 E4 F4 D4 | (E6 F2 G6 A2 | B8) E8 | %16
w: ve- ni spon\-|* * * sa|Chri\- * *|sti, ac\-|* ci- pe co-|ro\- * * *|* nam,|
 (A6 B2 c4) G4 | B4 G4 G8 | E4 G8 E4 | (F8 G8) | F8 C8 | C4 D8 B,4 | (C8 D6 E2 | %23
w: ac\- * * ci-|pe co- ro-|nam, ac- ci-|pe *|co- ro-|nam, ac- ci-|pe * *|
 ^F4) G4 (G2 FE F4) | G4 G8 A4 | =F4 F4 (G4 C4 | E8 D8) | E16 | z16 | z4 G4 G4 G4 | A4 E4 G4 E4 | %31
w: * co- ro\- * * *|nam, ac- ci-|pe co- ro\- *||nam,||quam ti- bi|Do- mi- nus, quam|
 E4 E4 (G4 D4- | D4) D4 E4 D4- | D4 C4 D4 E4 | F8 E4 (G4- | G4 ^F4) G8 | E8 F8 | A8 F4 A4- | %38
w: ti- bi Do\- *|* mi- nus prae\-|* pa- ra- vit|in ae- ter\-|* * num,|in ae-|ter- num, prae\-|
 A4 G4 A4 F4 | G4 F4 E8 | E8 z4 D4- | D4 C4 E4 C4 | D4 D4 D8 | G,16 | z4 G4 G4 G4 | E4 G4 F8 | %46
w: * pa- ra- vit|in ae- ter-|num, prae\-|* pa- ra- vit|in ae- ter-|num,|quam ti- bi|Do- mi- nus|
 A12 F4 | G4 D4 E4 E4 | (F2 E2 D2 E2 F2 G2 A4) | F4 D8 C4 | D4 D4 G8 | G4 (G8 ^F4) | G4 E8 D4 | %53
w: prae- pa-|ra- vit in ae-|ter\- * * * * * *|num, prae- pa-|ra- vit in|ae- ter\- *|num, in ae-|
 (C6 D2 E8) | D16 |] %55
w: ter\- * *|num.|
V:3
 d12 B4 | d4 e4 d8 | d8 z8 | d8 B8 | d4 e4 d8 | (d6 c2 B8-) |[M:4/2][K:treble-8] B4 c8 B4 | %7
w: Ve- ni|spon- sa Chri-|sti,|ve- ni|spon- sa Chri-|sti, * *|* ve- ni|
 d4 e4 (d8 | G6 A2 B2 G2 g4- | g4 ^f2 e2 f8) | e4 g8 g4 | ^f4 g4 (g2 fe f4) | g4 d8 B4 | (c8 d8) | %14
w: spon- sa Chri\-|||sti, ve- ni|spon- sa Chri\- * * *|sti, ac- ci-|pe *|
 c8 G8 | G4 g8 e4 | f4 d4 (e6 f2 | g2 f2 e2 dc d8) | c16 | z4 f8 e4 | f4 d4 (e2 d2 c2 B2 | %21
w: co- ro-|nam, ac- ci-|pe co- ro\- *||nam,|ac- ci-|pe co- ro\- * * *|
 A8) d4 e4- | e4 c4 (B6 AG | A4) B4 A8 | G4 d4 e4 A4- | A4 A4 (c2 B2 A2 B2 | c2 B2 c8 B4) | %27
w: * nam, ac\-|* ci- pe * *|* co- ro-|nam, ac- ci- pe|* co- ro\- * * *||
 c4 g4 g4 g4 | e4 g4 f8 | z16 | z4 c4 c4 c4 | A4 c4 B4 d4 | B4 B4 c4 B4 | A4 A8 G4 | A4 A4 c4 B4 | %35
w: nam, quam ti- bi|Do- mi- nus,||quam ti- bi|Do- mi- ns, quam|ti- bi Do- mi-|nus prae- pa-|ra- vit in ae-|
 A8 G8 | z8 z4 d4- | d4 c4 d4 d4 | f4 e4 d8 | c4 c8 B4 | c4 c4 e4 d4 | (e6 d2 c2 d2 e2 f2) | %42
w: ter- num,|prae\-|* pa- ra- vit|in ae- ter-|num, prae- pa-|ra- vit in ae-|ter\- * * * * *|
 (g2 d2 g8 ^f4) | g4 d4 d4 d4 | e4 c4 (e6 f2 | g8) z4 d4- | d4 c4 d4 d4 | c4 B4 A8 | A16 | %49
w: |num, quam ti- bi|Do- mi- nus, *|* prae\-|* pa- ra- vit|in ae- ter-|num,|
 z4 A8 G4 | A4 A4 c8 | B8 A8 | G16- | G16 | G16 |] %55
w: prae- pa-|ra- vit in|ae- ter-|num.|||
V:4
 z8 G,8- | G,4 E,4 G,4 ^F,4 | (G,6 A,2 B,2 G,2 C4 | B,4 D4) G,8 | z16 | G,12 E,4 | %6
w: Ve\-|* ni spon- sa|Chri\- * * * *|* * sti,||ve- ni|
[M:4/2] G,4 A,4 G,8 | G,8 z4 D4- | D4 B,4 D4 E4 | D8 D8 | C8 G,8 | D16 | G,16 | z16 | z8 z4 D4- | %15
w: spon- sa Chri-|sti, ve\-|* ni spon- sa|Chri- sti,|spon- sa|Chri-|sti,||ac\-|
 D4 B,4 (C8 | D8) C8 | G,8 G,8 | z16 | z16 | z8 z4 A,4- | A,4 F,4 (G,8 | A,8) G,8 | D,8 D,8 | %24
w: * ci- pe|* co-|ro- nam,|||ac\-|* ci- pe|* co-|ro- nam,|
 z4 G,4 E,4 F,4- | F,4 (E,2 D,2) (E,4 F,4 | E,6 F,2 G,8) | C,12 C4 | C4 C4 D4 A,4 | C8 z8 | z16 | %31
w: ac- ci- pe|* co\- * ro\- *||nam, quam|ti- bi Do- mi-|nus,||
 z8 G,8 | G,4 G,4 E,4 G,4 | F,4 F,8 E,4 | D,4 D,4 A,4 G,4 | D,8 G,4 B,4 | A,8 D8 | A,8 z8 | z16 | %39
w: quam|ti- bi Do- mi-|nus prae- pa-|ra- vit in ae-|ter- num, in|ae- ter-|num,||
 z4 A,8 G,4 | A,4 A,4 C4 B,4 | A,16 | G,8 z4 D4 | D4 D4 B,4 D4 | C16- | C8 z8 | z16 | z16 | %48
w: prae- pa-|ra- vit in ae-|ter-|num, quam|ti- bi Do- mi-|nus,||||
 D,12 C,4 | D,4 D,4 F,4 E,4 | D,8 C,4 E,4- | E,4 G,4 D,8 | G,4 C,8 B,,4 | C,16 | G,16 |] %55
w: prae- pa-|ra- vit in ae-|ter- num, in|* ae- ter-|num, in ae-|ter-|num.|

